X: 1
T: Sra sra paytonlar
M: 9/8
L: 1/8
K: G_/B^f
|: dc c_B BA AAG | G2- G2 gg fed | dc cB BA AAG | G2- G2- G2- G3 :|
|: z2 Gd d2 ddd | e2 fe d^c d3  | gf fe ed d2c | d2- dA  B^A B3 :|
